packages/core/src/svgs/tokens/mono/UNI.svg

<svg width="24" height="24" viewBox="0 0 24 24" fill="none" xmlns="http://www.w3.org/2000/svg">
<path fill-rule="evenodd" clip-rule="evenodd" d="M7.60017 7.31246L7.60268 7.31434C7.79518 7.47685 7.93955 7.59809 8.0308 7.68371L8.08705 7.73872C8.10076 7.75257 8.11369 7.76718 8.1258 7.78247C8.31767 8.03496 8.2458 8.26121 7.91642 8.43871C7.7333 8.53746 7.35705 8.63747 7.16893 8.63747C6.95642 8.63747 6.88268 8.55933 6.88268 8.55933L6.83893 8.52246C6.73393 8.43683 6.61268 8.33809 6.05518 7.39934C5.66052 6.81812 5.26469 6.23771 4.86769 5.65811C4.72062 5.43942 4.5706 5.22274 4.4177 5.0081C4.37081 4.96685 4.37144 4.9681 5.96518 7.67435C6.17018 8.12309 6.08143 8.34559 6.03644 8.45871C6.02605 8.47994 6.0193 8.50276 6.01643 8.52621C6.01643 8.68871 5.96956 8.77496 5.75705 8.99997C5.4033 9.37494 5.24457 9.79626 5.13019 10.6688C5.00269 11.6456 4.64269 12.3362 3.64394 13.5175C3.05957 14.2093 2.96395 14.3362 2.81645 14.615C2.63082 14.9656 2.57958 15.1625 2.55894 15.6055C2.53707 16.0743 2.57958 16.3774 2.73082 16.8255C2.86207 17.2174 3.00081 17.4768 3.35269 17.9942C3.65706 18.4418 3.83206 18.7743 3.83206 18.9042C3.83206 19.0075 3.85332 19.0081 4.32457 18.9069C5.45268 18.6649 6.36831 18.24 6.88393 17.7193C7.20268 17.3962 7.27768 17.2181 7.28017 16.7762C7.28142 16.4868 7.27079 16.4262 7.1883 16.26C7.05455 15.9893 6.81018 15.7643 6.27269 15.4162C5.56769 14.958 5.26644 14.5905 5.18393 14.0843C5.11518 13.6687 5.19456 13.3756 5.58393 12.6006C5.98769 11.7981 6.08768 11.4555 6.1558 10.6469C6.19955 10.1244 6.26017 9.91803 6.4183 9.75309C6.58331 9.57999 6.73143 9.5218 7.14017 9.46871C7.80642 9.38253 8.23017 9.21876 8.57891 8.91433C8.88079 8.64934 9.00766 8.39496 9.02704 8.01122L9.04142 7.72059L8.87266 7.53372C8.26017 6.85685 2.3502 2 2.3127 2C2.30519 2 2.50644 2.23937 2.76019 2.53187C5.02519 5.14123 6.76518 6.60748 7.60017 7.31246ZM4.17519 16.1362C4.2416 16.024 4.26145 15.8903 4.23049 15.7637C4.19953 15.637 4.12024 15.5276 4.00957 15.4586C3.79082 15.3211 3.45082 15.3856 3.45082 15.565C3.45101 15.5832 3.45529 15.6011 3.46332 15.6175L3.47145 15.6317C3.48017 15.6439 3.49071 15.6544 3.5027 15.6631L3.53019 15.6825L3.5552 15.6949C3.67644 15.755 3.68519 15.8212 3.58957 15.9574C3.49269 16.0949 3.50082 16.2168 3.61144 16.2986C3.79019 16.4318 4.04269 16.3587 4.17519 16.1362Z" fill="white"/>
<path d="M8.11887 3.41989C8.0845 3.40989 8.11262 3.40365 8.18324 3.39364C8.4295 3.35739 9.01137 3.40614 9.41131 3.49678C10.347 3.70802 11.1976 4.24802 12.1057 5.20801L12.3469 5.46301L12.692 5.41051C14.1464 5.18864 15.6257 5.36489 16.8638 5.90739C17.2039 6.05675 17.7407 6.35362 17.8076 6.42988C17.8295 6.45425 17.8681 6.61114 17.8951 6.77801C17.9863 7.35612 17.9406 7.79925 17.7544 8.13049C17.7303 8.17163 17.7092 8.21445 17.6913 8.25862L17.6789 8.29487C17.6595 8.36799 17.6726 8.42612 17.7158 8.52175C17.77 8.64487 17.922 8.73612 18.0719 8.73549C18.3794 8.73549 18.71 8.26362 18.8637 7.60738L18.925 7.34613L19.0457 7.47613C19.707 8.18799 20.227 9.15858 20.3162 9.84925L20.3394 10.0292L20.2287 9.86543C20.037 9.58427 19.8445 9.39177 19.5982 9.23733C19.1544 8.95862 18.6844 8.86362 17.4407 8.80112C16.3175 8.74487 15.682 8.65425 15.052 8.45924C13.9788 8.12737 13.4388 7.6855 12.1645 6.09926C11.5988 5.39426 11.2488 5.00489 10.9013 4.69113C10.1107 3.9774 9.33386 3.60364 8.33949 3.45739C8.26542 3.4482 8.19182 3.43569 8.11887 3.41989Z" fill="white"/>
<path d="M18.0606 5.03069C18.0893 4.55819 18.1563 4.24694 18.2919 3.96194C18.3463 3.84944 18.3963 3.75757 18.4043 3.75757C18.4119 3.75757 18.3881 3.84069 18.3518 3.94257C18.2538 4.2182 18.2369 4.59568 18.305 5.03506C18.3919 5.59257 18.4406 5.67256 19.0613 6.27444C19.352 6.55693 19.6913 6.91318 19.8138 7.06631L20.0369 7.3438L19.8138 7.14567C19.5407 6.90192 18.9131 6.4288 18.7745 6.36068C18.7488 6.34642 18.7212 6.3359 18.6925 6.32943C18.6851 6.32807 18.6775 6.32807 18.67 6.32943C18.6512 6.3338 18.635 6.34693 18.6107 6.37068C18.5575 6.42068 18.5462 6.49568 18.5388 6.85005C18.5276 7.40255 18.4481 7.75693 18.2563 8.11193C18.1532 8.3038 18.1369 8.26254 18.2301 8.0463C18.3006 7.88443 18.3075 7.8138 18.3069 7.2788C18.3056 6.20381 18.1713 5.94506 17.3825 5.50256C17.1449 5.37068 16.9008 5.25073 16.6513 5.14318C16.4487 5.05756 16.2882 4.98319 16.2938 4.97756C16.3163 4.95631 17.085 5.16943 17.395 5.28255C17.855 5.45069 17.9313 5.47256 17.987 5.45194C18.0244 5.43881 18.0431 5.33505 18.0606 5.03069ZM8.04695 4.20507C7.97258 5.03506 8.31571 6.14505 8.87008 6.86943C9.29945 7.43067 9.965 7.8663 10.4569 7.9088C10.7787 7.9363 10.8757 7.84005 10.73 7.6388C10.5276 7.3588 10.2788 6.92692 10.2132 6.74256C10.1371 6.49412 10.0712 6.24266 10.0158 5.98881C9.78446 4.96632 9.55755 4.56819 9.03258 4.26569C8.84133 4.15569 8.43258 4.01132 8.1957 3.97006L8.07008 3.94819L8.04695 4.20507ZM17.3888 12.2576C14.7988 11.2682 13.8869 10.4094 13.8869 8.96005C13.8869 8.74691 13.8945 8.57254 13.9038 8.57254C13.9139 8.57254 14.0138 8.64254 14.1269 8.7288C14.6519 9.12886 15.2401 9.29876 16.8681 9.52436C17.8257 9.65692 18.365 9.7644 18.862 9.92073C20.4431 10.4182 21.4213 11.4275 21.6544 12.8031C21.7219 13.2026 21.6819 13.9518 21.5725 14.3469C21.485 14.6588 21.2207 15.2206 21.1507 15.2425C21.1413 15.2451 21.1318 15.2306 21.125 15.205C21.1146 15.1644 21.1087 15.123 21.1069 15.0813C21.0807 14.5651 20.8056 14.0625 20.3443 13.6857C19.8194 13.2575 19.1131 12.9169 17.3888 12.2576ZM15.4457 12.1488C15.4819 12.2513 15.5381 12.4856 15.5707 12.6688C15.7782 13.84 15.1301 14.7869 13.8694 15.1538C13.7762 15.1779 13.6823 15.1987 13.5875 15.2162C13.4698 15.239 13.352 15.2607 13.2338 15.2812L13.0012 15.3212L12.7013 15.3706C11.6712 15.5331 11.2113 15.6487 10.7494 15.8601C10.4213 16.01 10.0245 16.2338 10.0489 16.2563C10.0519 16.2593 10.0683 16.2582 10.0932 16.2525C10.1244 16.2462 10.1681 16.2338 10.2144 16.2188C10.797 16.0244 11.4456 15.9238 12.4307 15.8751C12.5725 15.8688 12.7212 15.8601 12.8612 15.8506L13.0476 15.8382L13.2363 15.8243L13.3206 15.8169L13.4188 15.8068C14.2962 15.7018 14.9051 15.4494 15.3776 14.9925C15.6412 14.7382 15.7982 14.5013 15.9245 14.1675C16.0044 13.955 16.015 13.8769 16.0163 13.5012C16.0163 13.1188 16.0068 13.0488 15.9201 12.8138C15.8063 12.505 15.6726 12.2737 15.5026 12.0925L15.3795 11.962L15.4457 12.1488Z" fill="white"/>
<path d="M16.7578 14.6692C16.4139 13.9674 16.3351 13.2899 16.5233 12.6574C16.5434 12.5899 16.5758 12.5349 16.5959 12.5349C16.6237 12.5416 16.6503 12.5528 16.6746 12.568C16.7058 12.5842 16.7408 12.6055 16.7758 12.6274C16.9345 12.7286 17.2527 12.8992 18.0996 13.3374C19.157 13.8849 19.7596 14.3079 20.1695 14.7924C20.5283 15.216 20.7508 15.6986 20.8577 16.2873C20.9184 16.6204 20.8826 17.4229 20.7927 17.7586C20.5083 18.8174 19.8477 19.6486 18.9051 20.1335C18.8163 20.1825 18.7245 20.226 18.6302 20.2636C18.6265 20.2636 18.6276 20.2543 18.6333 20.2374L18.6445 20.2048C18.6639 20.1548 18.6989 20.0793 18.7414 19.9943C19.059 19.3648 19.0946 18.7537 18.8551 18.0723C18.7083 17.6555 18.4089 17.1473 17.8051 16.2873C17.1027 15.2874 16.9301 15.0218 16.7578 14.6692ZM10.2765 16.9717C9.18773 17.1399 7.99213 17.6867 7.03087 18.4567L6.74463 18.6861L6.99587 18.7236C8.30836 18.9173 8.66211 19.0898 9.57215 19.9798C10.0958 20.4923 10.2721 20.606 10.7072 20.711C11.3446 20.8655 11.974 20.5817 12.1896 20.0411C12.2858 19.7999 12.2734 19.4004 12.1627 19.1999C11.8996 18.7217 11.1327 18.5673 10.7627 18.9173C10.454 19.2092 10.544 19.6486 10.9277 19.7236C11.0152 19.7411 11.0134 19.7373 10.9052 19.6911C10.7371 19.6192 10.6646 19.5193 10.6634 19.3599C10.6615 18.9873 11.1108 18.7773 11.5297 18.9567C11.8359 19.0879 11.9577 19.2593 11.9577 19.5598C11.9577 20.0224 11.5428 20.3717 11.0596 20.3142C10.8015 20.2836 10.4858 20.1267 10.3159 19.9454C9.89021 19.4887 10.0565 18.7674 10.6515 18.4904C11.104 18.2798 11.7058 18.3318 12.1728 18.6217C12.7083 18.9549 12.9371 19.2593 13.3984 20.2592C13.549 20.5841 13.7421 20.9511 13.829 21.0736C14.2665 21.6948 14.7902 21.9999 15.4221 21.9999C15.7696 21.9999 16.0321 21.9392 16.3614 21.7829C16.6064 21.6674 16.9533 21.4467 16.9284 21.423C16.9214 21.4167 16.8196 21.446 16.7026 21.4898C16.0133 21.7448 15.3127 21.7273 14.9052 21.4443C14.649 21.2661 14.4427 20.9117 14.3365 20.4686C14.3177 20.3916 14.257 20.053 14.2009 19.7148C14.0596 18.8592 13.9239 18.4748 13.607 18.0335C13.2833 17.5817 12.6596 17.2023 11.9628 17.0336C11.5283 16.928 10.7458 16.8992 10.2765 16.9717Z" fill="white"/>
<path fill-rule="evenodd" clip-rule="evenodd" d="M8.75106 10.356C8.84481 10.0265 9.14918 9.7121 9.46161 9.62095C9.6598 9.56277 10.071 9.59966 10.2641 9.69285C10.6392 9.87397 10.9105 10.2852 10.8517 10.5821C10.7798 10.9447 10.1604 11.234 9.44849 11.2384C9.08481 11.2416 8.95043 11.1946 8.81168 11.0191C8.72606 10.9097 8.69356 10.5559 8.75106 10.356ZM10.1686 9.8222C10.3554 9.93027 10.4035 10.091 10.2936 10.2384C10.2179 10.3403 9.98355 10.4372 9.81234 10.4372C9.55611 10.4372 9.27543 10.2641 9.27543 10.1058C9.27543 9.7872 9.81292 9.61585 10.1686 9.8222Z" fill="white"/>
</svg>

<svg xmlns="http://www.w3.org/2000/svg" width="24" height="24" fill="none" viewBox="0 0 24 24">
    <path fill="#fff" fill-rule="evenodd" d="m7.6 7.312.003.002q.29.243.428.37l.056.055.039.043c.192.253.12.48-.21.657a2.1 2.1 0 0 1-.747.198c-.213 0-.286-.078-.286-.078l-.044-.037c-.105-.085-.226-.184-.784-1.123q-.591-.87-1.187-1.74a29 29 0 0 0-.45-.65c-.047-.042-.047-.04 1.547 2.665.205.45.116.672.071.785a.2.2 0 0 0-.02.067c0 .163-.046.249-.259.474-.354.375-.512.796-.627 1.669-.127.977-.487 1.667-1.486 2.848-.584.692-.68.82-.828 1.098-.185.35-.236.547-.257.99-.022.47.02.772.172 1.22.131.392.27.652.622 1.17.304.447.48.78.48.91 0 .102.02.103.492.002 1.128-.242 2.043-.667 2.559-1.188.319-.323.394-.5.396-.943.001-.29-.01-.35-.092-.516-.133-.27-.378-.496-.915-.844-.705-.458-1.007-.825-1.09-1.332-.068-.415.012-.708.4-1.483.405-.803.505-1.146.573-1.954.044-.523.104-.729.262-.894.165-.173.313-.231.722-.284.666-.086 1.09-.25 1.439-.555.302-.265.429-.519.448-.903l.014-.29-.168-.187C8.26 6.857 2.35 2 2.313 2c-.008 0 .193.24.447.532 2.265 2.61 4.005 4.075 4.84 4.78m-3.425 8.824a.5.5 0 0 0-.165-.677c-.22-.138-.56-.073-.56.106q.001.027.013.053l.008.014q.014.018.032.031l.027.02.025.012c.121.06.13.126.035.262-.097.138-.09.26.021.342.18.133.432.06.564-.163" clip-rule="evenodd"/>
    <path fill="#fff" d="M8.119 3.42c-.034-.01-.006-.016.064-.026.247-.037.828.012 1.228.103.936.211 1.787.751 2.695 1.711l.24.255.346-.052c1.454-.222 2.934-.046 4.172.496.34.15.877.447.944.523.021.024.06.181.087.348.091.578.046 1.021-.14 1.352a1 1 0 0 0-.064.129l-.012.036c-.02.073-.006.131.037.227.054.123.206.214.356.213.307 0 .638-.471.792-1.128l.061-.26.12.13c.662.711 1.182 1.682 1.271 2.372l.023.18-.11-.164a2.1 2.1 0 0 0-.63-.628c-.445-.278-.915-.373-2.158-.436-1.123-.056-1.759-.147-2.389-.342-1.073-.332-1.613-.773-2.887-2.36-.566-.705-.916-1.094-1.264-1.408-.79-.714-1.567-1.087-2.562-1.234a3 3 0 0 1-.22-.037"/>
    <path fill="#fff" d="M18.06 5.03c.03-.472.096-.783.232-1.068.054-.113.104-.204.112-.204a.7.7 0 0 1-.052.185c-.098.275-.115.653-.047 1.092.087.558.136.638.756 1.24.291.282.63.638.753.791l.223.278-.223-.198c-.273-.244-.9-.717-1.04-.785a.3.3 0 0 0-.082-.032h-.022c-.019.005-.035.018-.06.042-.052.05-.064.125-.071.479-.011.553-.09.907-.283 1.262-.103.192-.12.15-.026-.066.07-.162.078-.232.077-.767-.001-1.075-.136-1.334-.924-1.776a8 8 0 0 0-.732-.36 3 3 0 0 1-.357-.165c.022-.022.791.191 1.101.305.46.168.536.19.592.169.037-.013.056-.117.074-.421M8.048 4.206c-.074.83.269 1.94.823 2.664.43.562 1.095.997 1.587 1.04.322.027.419-.069.273-.27-.202-.28-.451-.712-.517-.896a10 10 0 0 1-.197-.754c-.232-1.023-.458-1.42-.983-1.723-.192-.11-.6-.255-.837-.296l-.126-.022zm9.342 8.053c-2.59-.99-3.502-1.849-3.502-3.298 0-.213.008-.387.017-.387s.11.07.223.156c.525.4 1.113.57 2.741.795.958.133 1.497.24 1.994.397 1.581.497 2.56 1.507 2.792 2.882.068.4.028 1.149-.081 1.544-.088.312-.352.874-.422.896q-.016.002-.026-.038a.6.6 0 0 1-.018-.124c-.026-.516-.301-1.018-.763-1.395-.525-.428-1.23-.77-2.955-1.428m-1.943-.11c.036.103.092.338.125.52.207 1.172-.44 2.119-1.702 2.486a4 4 0 0 1-.281.062q-.177.035-.354.065l-.233.04-.3.05c-1.03.162-1.49.278-1.952.49-.328.149-.725.373-.7.395q.006.005.044-.003c.031-.007.075-.02.121-.034.583-.195 1.232-.295 2.217-.344a20 20 0 0 0 .43-.024l.187-.013.188-.014.085-.007.098-.01c.877-.105 1.486-.358 1.959-.815.263-.254.42-.49.547-.825.08-.212.09-.29.091-.666 0-.382-.01-.452-.096-.687-.114-.309-.247-.54-.417-.722l-.123-.13z"/>
    <path fill="#fff" d="M16.758 14.67c-.344-.703-.423-1.38-.235-2.013.02-.067.053-.122.073-.122a.3.3 0 0 1 .079.033q.047.025.1.06c.16.1.478.271 1.325.71 1.057.547 1.66.97 2.07 1.454.358.424.58.907.688 1.495.06.333.025 1.136-.065 1.472-.285 1.058-.945 1.89-1.888 2.375q-.133.073-.275.13-.005 0 .003-.027l.012-.032c.019-.05.054-.126.096-.21.318-.63.354-1.241.114-1.923-.147-.416-.446-.925-1.05-1.785-.702-1-.875-1.265-1.047-1.618m-6.481 2.302c-1.09.168-2.285.715-3.246 1.485l-.286.23.25.037c1.313.193 1.667.366 2.577 1.256.524.512.7.626 1.135.731.638.155 1.267-.13 1.483-.67.096-.241.083-.64-.027-.841-.263-.478-1.03-.633-1.4-.283-.309.292-.219.732.165.807.087.017.085.013-.023-.033-.168-.072-.24-.172-.242-.331-.002-.373.448-.583.867-.403.306.13.428.302.428.603 0 .462-.415.812-.898.754a1.35 1.35 0 0 1-.744-.369c-.426-.456-.26-1.178.335-1.455.453-.21 1.055-.158 1.522.132.535.333.764.637 1.225 1.637.151.325.344.692.431.815.438.62.961.926 1.593.926.348 0 .61-.06.94-.217.244-.116.591-.336.566-.36a1 1 0 0 0-.225.067c-.69.255-1.39.237-1.798-.046-.256-.178-.462-.532-.569-.975a21 21 0 0 1-.135-.754c-.141-.856-.277-1.24-.594-1.681-.324-.452-.947-.832-1.644-1-.435-.106-1.217-.135-1.686-.062"/>
    <path fill="#fff" fill-rule="evenodd" d="M8.751 10.356c.094-.33.398-.644.71-.735.199-.058.61-.021.803.072.375.181.647.592.588.89-.072.362-.692.651-1.404.655-.363.004-.498-.043-.636-.219-.086-.11-.118-.463-.06-.663m1.418-.534c.186.108.234.269.125.416-.076.102-.31.2-.482.2-.256 0-.537-.174-.537-.332 0-.319.538-.49.894-.284" clip-rule="evenodd"/>
</svg>
